!!!COM: Haydn, Franz Joseph
!!!OTL: String Quartet in B-flat Major
!!!OPS: Opus 71
!!!ONM: No. 1
!!!OMD: Menuetto: Allegretto
!!!OMV: 3
!!!SCT: H III:69
!!!SCA: Thematisch-bibliographisches Werkevererzeichnis (A. van Hoboken)
!!!YOR: Trautwein Edition
!!!ENC: Frances Bennion
!!!CDT: 1732/3/31/-1809/5/31/
!!!CNT: Oesterreich
!!!YEC: Copyright (c) 1994, 2000 Center for Computer Assisted Research in the Humanities
!!!YEM: Rights to all derivative editions reserved.
!!!YEM: Refer to licensing agreement for further details.
!!!YEN: United States of America
**kern	**kern	**kern	**kern
*k[b-e-]	*k[b-e-]	*k[b-e-]	*k[b-e-]
*B-:	*B-:	*B-:	*B-:
*clefF4	*clefC3	*clefF	*clefF
*M3/4	*M3/4	*M3/4	*M3/4
2r	2r	2r	2r
4r	4r	4r	8B-
.	.	.	8c
=1	=1	=1	=1
4BB-	2.F	[2.B-	2.d
4F	.	.	.
4AA-	.	.	.
=2	=2	=2	=2
4GG	2.E-	2.B-]	2e-
4BB-	.	.	.
4EE-	.	.	4g
=3	=3	=3	=3
4FF	2.F	2.A	2f
4AA	.	.	.
4C	.	.	4e-
=4	=4	=4	=4
4BB-	4B-	4B-	4d
4B-	4r	4r	4r
4r	4e-	4b-	4gg
=5	=5	=5	=5
2.r	4f	2.a	2ff
.	4a	.	.
.	4cc	.	4ee-
=6	=6	=6	=6
2.r	4b-	4b-	4dd
.	2r	2r	4r
.	.	.	8B-
.	.	.	8c
=7	=7	=7	=7
4BB-	2F	[2.B-	2.d
4D	.	.	.
4FF#	4F#	.	.
=8	=8	=8	=8
4GG	[2.G	2.B-]	2e-
4BB-	.	.	.
4EE-	.	.	4g
=9	=9	=9	=9
4DD	2G]	2B	2f
4GG	.	.	.
4FF#	4F#	4c	4e-
=10	=10	=10	=10
4GG	4G	4B	4d
4G	2r	4r	4r
4r	.	4ee-	4gg
=11	=11	=11	=11
2.r	4r	2dd	2ff
.	4f	.	.
.	4f#	4cc	4ee-
=12	=12	=12	=12
2r	4g	4b	4dd
.	4G	4r	4r
4e	4c	[4b-	4gg
=13	=13	=13	=13
2f	2f	4b-]	2cc
.	.	4a	.
4e	4c	[4b-	4gg
=14	=14	=14	=14
2f	2f	4b-]	2cc
.	.	4a	.
4B	4d	[4a	[4ff
=15	=15	=15	=15
2c	4c	4a]	4ff]
.	8e	4b-	4gg
.	8g	.	.
4C	4b-	4g	4ee
=16	=16	=16	=16
4F	4a	4a	4ff
4r	4r	4r	2r
4A	4c	[4f	.
=17	=17	=17	=17
2.B-	2.d-	4f]	2.r
.	.	4g-	.
.	.	4e	.
=18	=18	=18	=18
2A	2c	2f	2r
4r	[4f	4a	4cc
=19	=19	=19	=19
2.r	4f]	2.b-	2.dd-
.	4g-	.	.
.	4e	.	.
=20	=20	=20	=20
2r	2f	2a	2cc
4d	[4g	4b	[4ff
=21	=21	=21	=21
2.c	2g]	4cc	4ff]
.	.	4r	4gg
.	[4g	[4b-	4ee
=22	=22	=22	=22
2.F	4g]	4b-]	2r
.	4a	4cc	.
.	[4cc	4a	[4ee-
=23	=23	=23	=23
2.B-	4cc]	2r	4ee-]
.	4dd	.	4ff
.	[4f	[4a-	4dd
=24	=24	=24	=24
2.e-	4f]	4a-]	2r
.	4g	4b-	.
.	4e-	[4g	[4ee-
=25	=25	=25	=25
2A	2A	4g]	4ee-]
.	.	4f	4dd
4B-	4B-	4e-	4cc
=26	=26	=26	=26
2F	2F	4d	4b-
.	.	4c	4a
4r	4r	[4ee-	[4gg
=27	=27	=27	=27
2.r	2a	4ee-]	4gg]
.	.	4dd	4ff
.	4b-	4cc	4ee-
=28	=28	=28	=28
2.r	2f	4b-	4dd
.	.	4a	4cc
.	4r	4r	8B-
.	.	.	8c
=29	=29	=29	=29
4BB-	2.F	[2.B-	2.d
4F	.	.	.
4AA-	.	.	.
=30	=30	=30	=30
4GG	2.E-	2.B-]	2e-
4BB-	.	.	.
4EE-	.	.	4g
=31	=31	=31	=31
4FF	2.F	2.A	2f
4AA	.	.	.
4C	.	.	4e-
=32	=32	=32	=32
4BB-	4B-	4B-	4d
4B-	4r	4r	4r
4r	8B-	8d	8ddd
.	8c	8e-	8ccc
=33	=33	=33	=33
2.r	2.d	4f	4bb-
.	.	4b-	4ddd
.	.	4b-	4ff#
=34	=34	=34	=34
2.r	2e-	2.b-	4gg
.	.	.	4bb-
.	4g	.	4ee-
=35	=35	=35	=35
2.r	2f	2b-	4dd
.	.	.	4ff
.	4e-	4a 4f	4a
=36	=36	=36	=36
2r	2d	2b- 2f	4b-
.	.	.	4dd
8G	[4e-	4r	4g
8A	.	.	.
=37	=37	=37	=37
4B-	4e-]	2.r	2f
4d	4d	.	.
4F#	[4c	.	4e-
=38	=38	=38	=38
4G	4c]	2r	2.d
4B-	4B-	.	.
4D	4B-	4f	.
=39	=39	=39	=39
4E-	2B-	4g	2.c
4G	.	4e-	.
4F	4A	4f	.
=40	=40	=40	=40
4BB-	4B-	4b-	4B-
4r	4r	4r	4r
4AA	4c	4f	8ff
.	.	.	8cc
=41	=41	=41	=41
4BB-	4d	4.f	8dd
.	.	.	8a
4r	4r	.	8b-
.	.	8r	8f
4D	4B-	4f#	8b-
.	.	.	8f#
=42	=42	=42	=42
4E-	4B-	4g	8g
.	.	.	8d
2r	2r	2r	8e-
.	.	.	8c
.	.	.	8gg
.	.	.	8dd
=43	=43	=43	=43
4E-	4c	4g	8ee-
.	.	.	8b
4r	4r	4r	8cc
.	.	.	8g
4C	4c	8g	8ee-
.	.	8e-	8cc
=44	=44	=44	=44
4F	4c	4c	8b-
.	.	.	8a
4r	4r	4r	8g
.	.	.	8f
4AA	4f	4c	8ff
.	.	.	8cc
=45	=45	=45	=45
4BB-	4f	4d	8dd
.	.	.	8a
4r	4r	4r	8b-
.	.	.	8f
4D	4B-	4f#	8b-
.	.	.	8f#
=46	=46	=46	=46
4E-	4B-	4g	8g
.	.	.	8d
2r	2r	2r	8e-
.	.	.	8c
.	.	.	8gg
.	.	.	8dd
=47	=47	=47	=47
4E-	4c	4g	8ee-
.	.	.	8b
4r	4r	4r	8cc
.	.	.	8ee-
4F	4c	4e-	8f
.	.	.	8a
=48	=48	=48	=48
4BB-	4d	4d	4b-
4B-	4r	4r	4r
4r	8f	4a	8cc
.	8c	.	8ff
=49	=49	=49	=49
2r	8d	4b-	4dd
.	8A	.	.
.	8B-	4r	4r
.	8F	.	.
8F	4r	8cc	4aa
8C	.	8ff	.
=50	=50	=50	=50
8D	2r	4dd	4bb-
8AA	.	.	.
8BB-	.	4r	4r
8FF	.	.	.
4r	8f	4aa	8ccc
.	8c	.	8fff
=51	=51	=51	=51
2r	8d	4bb-	4ddd
.	8A	.	.
.	8B-	4r	4r
.	8F	.	.
8G	4r	4bb-	4eee
8C	.	.	.
=52	=52	=52	=52
8F	2.r	4aa	4fff
8AA	.	.	.
8C	.	4r	4r
8FF	.	.	.
4r	.	8b-	4ee
.	.	8cc	.
=53	=53	=53	=53
2.r	2.r	8a	4ff
.	.	8cc	.
.	.	8f	4aa
.	.	8a	.
.	.	8b-	4ee
.	.	8cc	.
=54	=54	=54	=54
2.r	2r	8a	4ff
.	.	8cc	.
.	.	8f	4aa
.	.	8cc	.
.	4c	8b-	4ee
.	.	8cc	.
=55	=55	=55	=55
2.r	4F	8a	4ff
.	.	8cc	.
.	4r	8f	4ccc
.	.	8cc	.
.	4c	8b-	4ee
.	.	8cc	.
=56	=56	=56	=56
[2.F	4F	4a	8ff
.	.	.	8f
.	2r	4e-	8a
.	.	.	8f
.	.	4d	8b-
.	.	.	8f
=57	=57	=57	=57
2.F_	2.r	4d-	8b
.	.	.	8f
.	.	4c	8cc
.	.	.	8f
.	.	4B	8dd
.	.	.	8f
=58	=58	=58	=58
2.F_	4A	4c	8ee-
.	.	.	8f
.	8c	4e-	8a
.	4.r	.	8f
.	.	4d	8b-
.	.	.	8f
=59	=59	=59	=59
2.F_	2.r	4d-	8b
.	.	.	8f
.	.	4c	8cc
.	.	.	8f
.	.	4B	8dd
.	.	.	8f
=60	=60	=60	=60
2.F_	4A	4c	8ee-
.	.	.	8f
.	8c	4e-	8a
.	4.r	.	8f
.	.	4d	8b-
.	.	.	8f
=61	=61	=61	=61
2.F_	2.r	4d-	8b
.	.	.	8f
.	.	4c	8cc
.	.	.	8f
.	.	4B	8dd
.	.	.	8f
=62	=62	=62	=62
2F]	2.r	4c	8ee-
.	.	.	8f
.	.	4B-	8ee
.	.	.	8f
8FF	.	4A	8ff
8AA	.	.	8cc
=63	=63	=63	=63
8BB-	2r	4B-	8dd
8C	.	.	8a
4D	.	2r	8b-
.	.	.	8f
4r	8D	.	8b-
.	8B-	.	8f#
=64	=64	=64	=64
2.r	8E-	2r	8g
.	8F	.	8d
.	4G	.	8e-
.	.	.	8c
.	4r	8e-	8gg
.	.	8B	8dd
=65	=65	=65	=65
2.r	2.r	8c	8ee-
.	.	8d	8b
.	.	8e-	8cc
.	.	8d	8g
.	.	8c	8ee-
.	.	8e-	8cc
=66	=66	=66	=66
2r	2.r	4f	8b-
.	.	.	8a
.	.	2r	8g
.	.	.	8f
8AA	.	.	8ff
8F	.	.	8cc
=67	=67	=67	=67
8BB-	2r	2.r	8dd
8C	.	.	8a
4D	.	.	8b-
.	.	.	8f
4r	8D	.	8b-
.	8B-	.	8f#
=68	=68	=68	=68
2.r	8E-	2r	8g
.	8F	.	8d
.	4G	.	8e-
.	.	.	8c
.	4r	8e-	8gg
.	.	8B	8dd
=69	=69	=69	=69
2r	2r	8c	8ee-
.	.	8d	8b
.	.	8e-	8cc
.	.	8g	8ee-
4F	4c	8f	8f
.	.	8e-	8a
=70	=70	=70	=70
4BB-	4d	4d	4b-
2r	2r	2r	2r
==	==	==	==
*-	*-	*-	*-
!!!RWG1: This file contains only pitch and duration data.
!!!RWG2: Transposing instruments are not transposed.
!!!RWG3: Spines may have incompatible meters.
!!!RWG4: Durations of rests and tied notes may be interpreted.
!!!RWG: Key is interpreted using the Humdrum key tool.
!!!GTL: 6 Quartetti ("Apponyi")
!!!AFT: stage1
!!!END: 1997/04/15
!!!KEY: 3702669649
!!!EMD: Converted from MuseData to Humdrum Dec 16, 2000, by Andreas Kornstaedt using muse2kern.
!!!EMD: Manual editing by Craig Sapp, Nov 2001
